cssgg/calibrate.svg

<svg
  width="24"
  height="24"
  viewBox="0 0 24 24"
  fill="none"
  xmlns="http://www.w3.org/2000/svg"
>
  <path
    d="M12.0503 5C14.51 5 16.7393 5.98676 18.3638 7.58602L14.1208 11.8291C13.5824 11.3154 12.8531 11 12.0503 11C11.1963 11 10.4256 11.3568 9.87927 11.9295L5.63623 7.68651C7.26871 6.0282 9.53941 5 12.0503 5Z"
    fill="currentColor"
  />
  <path
    d="M12.0503 19C13.7071 19 15.0503 17.6569 15.0503 16C15.0503 14.3431 13.7071 13 12.0503 13C10.3934 13 9.05029 14.3431 9.05029 16C9.05029 17.6569 10.3934 19 12.0503 19Z"
    fill="currentColor"
  />
</svg>

<svg viewBox="0 0 24 24" xmlns="http://www.w3.org/2000/svg"><g><path d="M12.05 5c2.45 0 4.689.98 6.31 2.58l-4.25 4.24c-.54-.52-1.27-.83-2.08-.83 -.86 0-1.63.35-2.18.92L5.6 7.66C7.23 6 9.5 4.97 12.01 4.97Z"/><path d="M12.05 19c1.65 0 3-1.35 3-3 0-1.66-1.35-3-3-3 -1.66 0-3.01 1.34-3.01 3 0 1.65 1.34 3 3 3Z"/></g></svg>
